X:1
T: Dinky's Reel
I:
Z:
R: reel
M: C|
P: A Mixolydian
K: Amix
ed| "A"cdBc ABcd| egfd edBd| "G"gB (3.B.B.B gBaB| gB (3.B.B.B gfed|
"A"cdBc ABcd| egfd edBd| "G"gfge "D"dfed| "E"cdBc "A"A2 :|
e^g| "A"aA (3.A.A.A aAbA| aA (3.A.A.A agef| "G"gB (3.B.B.B gBaB| gB (3.B.B.B gefg|
"A"aA (3.A.A.A aAbA| aA (3.A.A.A agef| "G"gfge "D"dfed| "E"cdBc "A"A2e^g|
"A"aA (3.A.A.A aAbA| aA (3.A.A.A agef| "G"gB (3.B.B.B gBaB| gB (3.B.B.B gefg|
"A"aA (3.A.A.A "G"gA (3.A.A.A| "D"fA (3.A.A.A "A"e2ef| "G"gfge "D"dfed| "E"cdBc "A"A2|]
%
%
%%scale .7
